icon-themes/sifr_svg/cmd/lc_saveasremote.svg

<svg viewBox="0 0 24 24" xmlns="http://www.w3.org/2000/svg"><path d="m4 1c-1.108 0-2 .892-2 2v14c0 1.108.892 2 2 2h1v-8h4.3945312c1.0016398-1.0003144 2.0042028-1.999703 3.0058598-3h-6.400391c-.554 0-1-.446-1-1v-2c0-.554.446-1 1-1h10.408203c1.001663-.9996383 2.001762-2.0008439 3.003906-3zm16.800781.027344-1.601562 1.5957031 1.601562 1.5976562 1.59961 1.5976563 1.599609-1.5976565c0-.2156906.0035-.434719-.05078-.6464843-.036272-.1767787-.13506-.3351894-.19922-.5-.388757-.9986454-1.227971-1.7769258-2.300781-1.9960938-.016-.0032-.03283.0032-.04883 0-.196875-.04672-.39961-.050781-.59961-.050781zm-3.201172 3.1933591-9.599609 9.5839849v3.195312h3.199219l9.601562-9.5820312zm4.400391 3.4101563c-1.12478 1.1232668-2.249988 2.2461059-3.375 3.3691406h.375v8h1c1.108 0 2-.892 2-2zm-5.378906 5.3691406c-1.669533 1.666404-3.338386 3.33349-5.007813 5h-4.613281v1h4v2h-11v2h24v-2h-11v-2h4v-6z" fill="#555753"/></svg>

<svg xmlns="http://www.w3.org/2000/svg" viewBox="0 0 24 24">
  <path
     style="fill:#555753"
     d="M 4,1 C 2.892,1 2,1.892 2,3 v 14 c 0,1.108 0.892,2 2,2 H 5 V 11 H 9.3945312 C 10.396171,9.9996856 11.398734,9.000297 12.400391,8 H 6 C 5.446,8 5,7.554 5,7 V 5 C 5,4.446 5.446,4 6,4 h 10.408203 c 1.001663,-0.9996383 2.001762,-2.0008439 3.003906,-3 z m 16.800781,0.027344 -1.601562,1.5957031 1.601562,1.5976562 1.59961,1.5976563 L 24,4.2207031 c 0,-0.2156906 0.0035,-0.434719 -0.05078,-0.6464843 C 23.912948,3.3974401 23.81416,3.2390294 23.75,3.0742188 23.361243,2.0755734 22.522029,1.297293 21.449219,1.078125 c -0.016,-0.0032 -0.03283,0.0032 -0.04883,0 -0.196875,-0.04672 -0.39961,-0.050781 -0.59961,-0.050781 z M 17.599609,4.2207031 8,13.804688 V 17 h 3.199219 L 20.800781,7.4179688 Z M 22,7.6308594 C 20.87522,8.7541262 19.750012,9.8769653 18.625,11 H 19 v 8 h 1 c 1.108,0 2,-0.892 2,-2 z M 16.621094,13 c -1.669533,1.666404 -3.338386,3.33349 -5.007813,5 H 7 v 1 h 4 v 2 H 0 v 2 H 24 V 21 H 13 v -2 h 4 v -6 z"
     />
</svg>
